report_00007_2020-12-11T15:55:29.892Z/meta/score/comparison/sorted/2_vs_3.svg

<svg width="640" height="500" xmlns="http://www.w3.org/2000/svg" xmlns:xlink="http://www.w3.org/1999/xlink"><path fill="#fff" d="M0 0h640v500H0z"/><defs><path id="d" stroke-width=".222" stroke="currentColor" d="M-1-1h2v2h-2z"/><path id="b" stroke-width=".222" stroke="currentColor" d="M0-1.33l-1.33 2h2.66z"/><path id="f" stroke-width=".222" stroke="currentColor" d="M0 1.33L1.265.411.782-1.067l-1.564-.009-.483 1.487z"/><use xlink:href="#b" id="c" stroke="currentColor" transform="rotate(180)"/><use xlink:href="#d" id="e" stroke="currentColor" transform="rotate(45)"/><circle id="a" stroke-width=".222" stroke="currentColor" cx="0" cy="0" r="1"/></defs><g fill="none" color="#000" stroke="currentColor"><path stroke="#000" d="M62.2 445.3h9m543.8 0h-9"/><text transform="translate(53.9 449.2)" stroke="none" fill="#000" font-family="Arial" font-size="12" text-anchor="end"><tspan>0.49</tspan></text></g><g fill="none" color="#000" stroke="currentColor"><path stroke="#000" d="M62.2 389.9h9m543.8 0h-9"/><text transform="translate(53.9 393.8)" stroke="none" fill="#000" font-family="Arial" font-size="12" text-anchor="end"><tspan>0.5</tspan></text></g><g fill="none" color="#000" stroke="currentColor"><path stroke="#000" d="M62.2 334.6h9m543.8 0h-9"/><text transform="translate(53.9 338.5)" stroke="none" fill="#000" font-family="Arial" font-size="12" text-anchor="end"><tspan>0.51</tspan></text></g><g fill="none" color="#000" stroke="currentColor"><path stroke="#000" d="M62.2 279.3h9m543.8 0h-9"/><text transform="translate(53.9 283.2)" stroke="none" fill="#000" font-family="Arial" font-size="12" text-anchor="end"><tspan>0.52</tspan></text></g><g fill="none" color="#000" stroke="currentColor"><path stroke="#000" d="M62.2 223.9h9m543.8 0h-9"/><text transform="translate(53.9 227.8)" stroke="none" fill="#000" font-family="Arial" font-size="12" text-anchor="end"><tspan>0.53</tspan></text></g><g fill="none" color="#000" stroke="currentColor"><path stroke="#000" d="M62.2 168.6h9m543.8 0h-9"/><text transform="translate(53.9 172.5)" stroke="none" fill="#000" font-family="Arial" font-size="12" text-anchor="end"><tspan>0.54</tspan></text></g><g fill="none" color="#000" stroke="currentColor"><path stroke="#000" d="M62.2 113.3h9m543.8 0h-9"/><text transform="translate(53.9 117.2)" stroke="none" fill="#000" font-family="Arial" font-size="12" text-anchor="end"><tspan>0.55</tspan></text></g><g fill="none" color="#000" stroke="currentColor"><path stroke="#000" d="M62.2 57.9h9m543.8 0h-9"/><text transform="translate(53.9 61.8)" stroke="none" fill="#000" font-family="Arial" font-size="12" text-anchor="end"><tspan>0.56</tspan></text></g><g fill="none" color="#000" stroke="currentColor"><path stroke="#000" d="M62.2 446v-9m0-418.9v9"/><text transform="translate(62.2 467.9)" stroke="none" fill="#000" font-family="Arial" font-size="12" text-anchor="middle"><tspan>0</tspan></text></g><g fill="none" color="#000" stroke="currentColor"><path stroke="#000" d="M118 446v-9m0-418.9v9"/><text transform="translate(118 467.9)" stroke="none" fill="#000" font-family="Arial" font-size="12" text-anchor="middle"><tspan>10</tspan></text></g><g fill="none" color="#000" stroke="currentColor"><path stroke="#000" d="M173.9 446v-9m0-418.9v9"/><text transform="translate(173.9 467.9)" stroke="none" fill="#000" font-family="Arial" font-size="12" text-anchor="middle"><tspan>20</tspan></text></g><g fill="none" color="#000" stroke="currentColor"><path stroke="#000" d="M229.7 446v-9m0-418.9v9"/><text transform="translate(229.7 467.9)" stroke="none" fill="#000" font-family="Arial" font-size="12" text-anchor="middle"><tspan>30</tspan></text></g><g fill="none" color="#000" stroke="currentColor"><path stroke="#000" d="M285.6 446v-9m0-418.9v9"/><text transform="translate(285.6 467.9)" stroke="none" fill="#000" font-family="Arial" font-size="12" text-anchor="middle"><tspan>40</tspan></text></g><g fill="none" color="#000" stroke="currentColor"><path stroke="#000" d="M341.4 446v-9m0-418.9v9"/><text transform="translate(341.4 467.9)" stroke="none" fill="#000" font-family="Arial" font-size="12" text-anchor="middle"><tspan>50</tspan></text></g><g fill="none" color="#000" stroke="currentColor"><path stroke="#000" d="M397.2 446v-9m0-418.9v9"/><text transform="translate(397.2 467.9)" stroke="none" fill="#000" font-family="Arial" font-size="12" text-anchor="middle"><tspan>60</tspan></text></g><g fill="none" color="#000" stroke="currentColor"><path stroke="#000" d="M453.1 446v-9m0-418.9v9"/><text transform="translate(453.1 467.9)" stroke="none" fill="#000" font-family="Arial" font-size="12" text-anchor="middle"><tspan>70</tspan></text></g><g fill="none" color="#000" stroke="currentColor"><path stroke="#000" d="M508.9 446v-9m0-418.9v9"/><text transform="translate(508.9 467.9)" stroke="none" fill="#000" font-family="Arial" font-size="12" text-anchor="middle"><tspan>80</tspan></text></g><g fill="none" color="#000" stroke="currentColor"><path stroke="#000" d="M564.7 446v-9m0-418.9v9"/><text transform="translate(564.7 467.9)" stroke="none" fill="#000" font-family="Arial" font-size="12" text-anchor="middle"><tspan>90</tspan></text></g><path stroke="#000" d="M62.2 18.1V446H615V18.1H62.2z" fill="none" color="#000"/><text transform="translate(279.8 485.9)" stroke="none" fill="#000" font-family="Arial" font-size="12" text-anchor="end" color="#000"><tspan>pages+cached</tspan></text><path stroke="#9400D3" d="M288.1 482h42.2M62.2 437.8l5.6-26.8 5.6-16.5 5.6-14 5.5-3.6 5.6-5.4 5.6-12.6 5.6-12.5 5.6-3.1 5.6-2.8 5.5-2.5 5.6-.7 5.6-1.9 5.6-.9 5.6-10.9 5.6-22.1 5.5-4.8 5.6-.6 5.6-1.1 5.6-.1 5.6-6.4 5.6-.4 5.5-1.2 5.6-1.2 5.6-13.8 5.6-14.1 5.6-3.4 5.6-1.5 5.5-4.7 5.6-1.8 5.6-.8 5.6-.3 5.6-1.3 5.6-1.4 5.6-.5 5.5-.6 5.6-3.5 5.6-2.4 5.6-3.8 5.6-.5 5.6-.7h5.5l5.6-2.2 5.6-2.2 5.6-4.9 5.6-2.1 5.6-5.2 5.5-5 5.6-3.3 5.6-.3 5.6-4.3 5.6-.1 5.6-5.7 5.5-.6 5.6-2.1 5.6-4.5 5.6-.1 5.6-1.1 5.6-2.9 5.5-3.3 5.6-2.7 5.6-2.4 5.6-5.5 5.6-1.5 5.6-.7h5.5l5.6-.1h5.6l5.6-5 5.6-.9 5.6-3.7 5.6-.5 5.5-4.8 5.6-8 5.6-1 5.6-2.3 5.6-3.1 5.6-2 5.5-.8 5.6-1.1 5.6-1.2 5.6-1.5 5.6-.1 5.6-6.3 5.5-1.7 5.6-.1 5.6-5.7 5.6-.8 5.6-1.4 5.6-.5 5.5-12.4 5.6-3 5.6-.2 5.6-.4 5.6-3.5h5.6l5.5-2.2 5.6-3.5 5.6-1.7 5.6-62.1" fill="none" color="#000"/><text transform="translate(554.4 485.9)" stroke="none" fill="#000" font-family="Arial" font-size="12" text-anchor="end" color="#000"><tspan>pages+cached+nointeractive</tspan></text><path stroke="#009E73" d="M562.7 482h42.2M62.2 397l5.6-29.3 5.6-3.3 5.6-.9 5.5-22.4 5.6-6.5 5.6-9.9 5.6-.4 5.6-2.6 5.6-31.2 5.5-.4 5.6-2.2 5.6-1.8 5.6-1.9 5.6-1.8 5.6-3.6 5.5-.5 5.6-1.6 5.6-2.2 5.6-5.3 5.6-3.4 5.6-9.1 5.5-.2 5.6-10.4 5.6-.3 5.6-2.6 5.6-.2 5.6-.4 5.5-1.8 5.6-1 5.6-.8 5.6-2.5 5.6-.4 5.6-2 5.6-1.3h5.5l5.6-1.9 5.6-.8 5.6-2 5.6-1.2 5.6-2.3 5.5-5.5 5.6-.3 5.6-.3 5.6-1.3 5.6-.3 5.6-.2 5.5-3.7 5.6-1.3 5.6-1.6 5.6-3.2 5.6-2 5.6-1.9 5.5-.7 5.6-2.2 5.6-4.2 5.6-.9 5.6-4.2 5.6-1.9 5.5-.8 5.6-3.1 5.6-.3 5.6-.5 5.6-6.9 5.6-7.1 5.5-1.7 5.6-5.5 5.6-7.3 5.6-17.4 5.6-.7 5.6-.3 5.6-.2 5.5-.7 5.6-.9 5.6-.5 5.6-.8 5.6-.4 5.6-.3 5.5-1.2 5.6-.3 5.6-1.8 5.6-.2 5.6-2.7 5.6-1.1 5.5-1.7 5.6-2.4 5.6-.3 5.6-1.4h5.6l5.6-.8 5.5-.4 5.6-1.1 5.6-2.8 5.6-2.1 5.6-7 5.6-11.6 5.5-1.9 5.6-.3 5.6-7.1 5.6-3.6" fill="none" color="#000"/><g fill="none" color="#000" stroke="currentColor"><path stroke="#000" d="M62.2 18.1V446H615V18.1H62.2z"/></g></svg>

<?xml version="1.0" encoding="utf-8"  standalone="no"?>
<svg 
 width="640" height="500"
 viewBox="0 0 640 500"
 xmlns="http://www.w3.org/2000/svg"
 xmlns:xlink="http://www.w3.org/1999/xlink"
>

<title>Gnuplot</title>
<desc>Produced by GNUPLOT 5.4 patchlevel 0 </desc>

<g id="gnuplot_canvas">

<rect x="0" y="0" width="640" height="500" fill="#ffffff"/>
<defs>

	<circle id='gpDot' r='0.5' stroke-width='0.5' stroke='currentColor'/>
	<path id='gpPt0' stroke-width='0.222' stroke='currentColor' d='M-1,0 h2 M0,-1 v2'/>
	<path id='gpPt1' stroke-width='0.222' stroke='currentColor' d='M-1,-1 L1,1 M1,-1 L-1,1'/>
	<path id='gpPt2' stroke-width='0.222' stroke='currentColor' d='M-1,0 L1,0 M0,-1 L0,1 M-1,-1 L1,1 M-1,1 L1,-1'/>
	<rect id='gpPt3' stroke-width='0.222' stroke='currentColor' x='-1' y='-1' width='2' height='2'/>
	<rect id='gpPt4' stroke-width='0.222' stroke='currentColor' fill='currentColor' x='-1' y='-1' width='2' height='2'/>
	<circle id='gpPt5' stroke-width='0.222' stroke='currentColor' cx='0' cy='0' r='1'/>
	<use xlink:href='#gpPt5' id='gpPt6' fill='currentColor' stroke='none'/>
	<path id='gpPt7' stroke-width='0.222' stroke='currentColor' d='M0,-1.33 L-1.33,0.67 L1.33,0.67 z'/>
	<use xlink:href='#gpPt7' id='gpPt8' fill='currentColor' stroke='none'/>
	<use xlink:href='#gpPt7' id='gpPt9' stroke='currentColor' transform='rotate(180)'/>
	<use xlink:href='#gpPt9' id='gpPt10' fill='currentColor' stroke='none'/>
	<use xlink:href='#gpPt3' id='gpPt11' stroke='currentColor' transform='rotate(45)'/>
	<use xlink:href='#gpPt11' id='gpPt12' fill='currentColor' stroke='none'/>
	<path id='gpPt13' stroke-width='0.222' stroke='currentColor' d='M0,1.330 L1.265,0.411 L0.782,-1.067 L-0.782,-1.076 L-1.265,0.411 z'/>
	<use xlink:href='#gpPt13' id='gpPt14' fill='currentColor' stroke='none'/>
	<filter id='textbox' filterUnits='objectBoundingBox' x='0' y='0' height='1' width='1'>
	  <feFlood flood-color='#FFFFFF' flood-opacity='1' result='bgnd'/>
	  <feComposite in='SourceGraphic' in2='bgnd' operator='atop'/>
	</filter>
	<filter id='greybox' filterUnits='objectBoundingBox' x='0' y='0' height='1' width='1'>
	  <feFlood flood-color='lightgrey' flood-opacity='1' result='grey'/>
	  <feComposite in='SourceGraphic' in2='grey' operator='atop'/>
	</filter>
</defs>
<g fill="none" color="#FFFFFF" stroke="black" stroke-width="1.00" stroke-linecap="butt" stroke-linejoin="miter">
</g>
<g fill="none" color="black" stroke="currentColor" stroke-width="1.00" stroke-linecap="butt" stroke-linejoin="miter">
	<path stroke='black'  d='M62.2,445.3 L71.2,445.3 M615.0,445.3 L606.0,445.3  '/>	<g transform="translate(53.9,449.2)" stroke="none" fill="black" font-family="Arial" font-size="12.00"  text-anchor="end">
		<text><tspan font-family="Arial" > 0.49</tspan></text>
	</g>
</g>
<g fill="none" color="black" stroke="currentColor" stroke-width="1.00" stroke-linecap="butt" stroke-linejoin="miter">
	<path stroke='black'  d='M62.2,389.9 L71.2,389.9 M615.0,389.9 L606.0,389.9  '/>	<g transform="translate(53.9,393.8)" stroke="none" fill="black" font-family="Arial" font-size="12.00"  text-anchor="end">
		<text><tspan font-family="Arial" > 0.5</tspan></text>
	</g>
</g>
<g fill="none" color="black" stroke="currentColor" stroke-width="1.00" stroke-linecap="butt" stroke-linejoin="miter">
	<path stroke='black'  d='M62.2,334.6 L71.2,334.6 M615.0,334.6 L606.0,334.6  '/>	<g transform="translate(53.9,338.5)" stroke="none" fill="black" font-family="Arial" font-size="12.00"  text-anchor="end">
		<text><tspan font-family="Arial" > 0.51</tspan></text>
	</g>
</g>
<g fill="none" color="black" stroke="currentColor" stroke-width="1.00" stroke-linecap="butt" stroke-linejoin="miter">
	<path stroke='black'  d='M62.2,279.3 L71.2,279.3 M615.0,279.3 L606.0,279.3  '/>	<g transform="translate(53.9,283.2)" stroke="none" fill="black" font-family="Arial" font-size="12.00"  text-anchor="end">
		<text><tspan font-family="Arial" > 0.52</tspan></text>
	</g>
</g>
<g fill="none" color="black" stroke="currentColor" stroke-width="1.00" stroke-linecap="butt" stroke-linejoin="miter">
	<path stroke='black'  d='M62.2,223.9 L71.2,223.9 M615.0,223.9 L606.0,223.9  '/>	<g transform="translate(53.9,227.8)" stroke="none" fill="black" font-family="Arial" font-size="12.00"  text-anchor="end">
		<text><tspan font-family="Arial" > 0.53</tspan></text>
	</g>
</g>
<g fill="none" color="black" stroke="currentColor" stroke-width="1.00" stroke-linecap="butt" stroke-linejoin="miter">
	<path stroke='black'  d='M62.2,168.6 L71.2,168.6 M615.0,168.6 L606.0,168.6  '/>	<g transform="translate(53.9,172.5)" stroke="none" fill="black" font-family="Arial" font-size="12.00"  text-anchor="end">
		<text><tspan font-family="Arial" > 0.54</tspan></text>
	</g>
</g>
<g fill="none" color="black" stroke="currentColor" stroke-width="1.00" stroke-linecap="butt" stroke-linejoin="miter">
	<path stroke='black'  d='M62.2,113.3 L71.2,113.3 M615.0,113.3 L606.0,113.3  '/>	<g transform="translate(53.9,117.2)" stroke="none" fill="black" font-family="Arial" font-size="12.00"  text-anchor="end">
		<text><tspan font-family="Arial" > 0.55</tspan></text>
	</g>
</g>
<g fill="none" color="black" stroke="currentColor" stroke-width="1.00" stroke-linecap="butt" stroke-linejoin="miter">
	<path stroke='black'  d='M62.2,57.9 L71.2,57.9 M615.0,57.9 L606.0,57.9  '/>	<g transform="translate(53.9,61.8)" stroke="none" fill="black" font-family="Arial" font-size="12.00"  text-anchor="end">
		<text><tspan font-family="Arial" > 0.56</tspan></text>
	</g>
</g>
<g fill="none" color="black" stroke="currentColor" stroke-width="1.00" stroke-linecap="butt" stroke-linejoin="miter">
	<path stroke='black'  d='M62.2,446.0 L62.2,437.0 M62.2,18.1 L62.2,27.1  '/>	<g transform="translate(62.2,467.9)" stroke="none" fill="black" font-family="Arial" font-size="12.00"  text-anchor="middle">
		<text><tspan font-family="Arial" > 0</tspan></text>
	</g>
</g>
<g fill="none" color="black" stroke="currentColor" stroke-width="1.00" stroke-linecap="butt" stroke-linejoin="miter">
	<path stroke='black'  d='M118.0,446.0 L118.0,437.0 M118.0,18.1 L118.0,27.1  '/>	<g transform="translate(118.0,467.9)" stroke="none" fill="black" font-family="Arial" font-size="12.00"  text-anchor="middle">
		<text><tspan font-family="Arial" > 10</tspan></text>
	</g>
</g>
<g fill="none" color="black" stroke="currentColor" stroke-width="1.00" stroke-linecap="butt" stroke-linejoin="miter">
	<path stroke='black'  d='M173.9,446.0 L173.9,437.0 M173.9,18.1 L173.9,27.1  '/>	<g transform="translate(173.9,467.9)" stroke="none" fill="black" font-family="Arial" font-size="12.00"  text-anchor="middle">
		<text><tspan font-family="Arial" > 20</tspan></text>
	</g>
</g>
<g fill="none" color="black" stroke="currentColor" stroke-width="1.00" stroke-linecap="butt" stroke-linejoin="miter">
	<path stroke='black'  d='M229.7,446.0 L229.7,437.0 M229.7,18.1 L229.7,27.1  '/>	<g transform="translate(229.7,467.9)" stroke="none" fill="black" font-family="Arial" font-size="12.00"  text-anchor="middle">
		<text><tspan font-family="Arial" > 30</tspan></text>
	</g>
</g>
<g fill="none" color="black" stroke="currentColor" stroke-width="1.00" stroke-linecap="butt" stroke-linejoin="miter">
	<path stroke='black'  d='M285.6,446.0 L285.6,437.0 M285.6,18.1 L285.6,27.1  '/>	<g transform="translate(285.6,467.9)" stroke="none" fill="black" font-family="Arial" font-size="12.00"  text-anchor="middle">
		<text><tspan font-family="Arial" > 40</tspan></text>
	</g>
</g>
<g fill="none" color="black" stroke="currentColor" stroke-width="1.00" stroke-linecap="butt" stroke-linejoin="miter">
	<path stroke='black'  d='M341.4,446.0 L341.4,437.0 M341.4,18.1 L341.4,27.1  '/>	<g transform="translate(341.4,467.9)" stroke="none" fill="black" font-family="Arial" font-size="12.00"  text-anchor="middle">
		<text><tspan font-family="Arial" > 50</tspan></text>
	</g>
</g>
<g fill="none" color="black" stroke="currentColor" stroke-width="1.00" stroke-linecap="butt" stroke-linejoin="miter">
	<path stroke='black'  d='M397.2,446.0 L397.2,437.0 M397.2,18.1 L397.2,27.1  '/>	<g transform="translate(397.2,467.9)" stroke="none" fill="black" font-family="Arial" font-size="12.00"  text-anchor="middle">
		<text><tspan font-family="Arial" > 60</tspan></text>
	</g>
</g>
<g fill="none" color="black" stroke="currentColor" stroke-width="1.00" stroke-linecap="butt" stroke-linejoin="miter">
	<path stroke='black'  d='M453.1,446.0 L453.1,437.0 M453.1,18.1 L453.1,27.1  '/>	<g transform="translate(453.1,467.9)" stroke="none" fill="black" font-family="Arial" font-size="12.00"  text-anchor="middle">
		<text><tspan font-family="Arial" > 70</tspan></text>
	</g>
</g>
<g fill="none" color="black" stroke="currentColor" stroke-width="1.00" stroke-linecap="butt" stroke-linejoin="miter">
	<path stroke='black'  d='M508.9,446.0 L508.9,437.0 M508.9,18.1 L508.9,27.1  '/>	<g transform="translate(508.9,467.9)" stroke="none" fill="black" font-family="Arial" font-size="12.00"  text-anchor="middle">
		<text><tspan font-family="Arial" > 80</tspan></text>
	</g>
</g>
<g fill="none" color="black" stroke="currentColor" stroke-width="1.00" stroke-linecap="butt" stroke-linejoin="miter">
	<path stroke='black'  d='M564.7,446.0 L564.7,437.0 M564.7,18.1 L564.7,27.1  '/>	<g transform="translate(564.7,467.9)" stroke="none" fill="black" font-family="Arial" font-size="12.00"  text-anchor="middle">
		<text><tspan font-family="Arial" > 90</tspan></text>
	</g>
</g>
<g fill="none" color="black" stroke="currentColor" stroke-width="1.00" stroke-linecap="butt" stroke-linejoin="miter">
</g>
<g fill="none" color="black" stroke="currentColor" stroke-width="1.00" stroke-linecap="butt" stroke-linejoin="miter">
	<path stroke='black'  d='M62.2,18.1 L62.2,446.0 L615.0,446.0 L615.0,18.1 L62.2,18.1 Z  '/></g>
<g fill="none" color="black" stroke="currentColor" stroke-width="1.00" stroke-linecap="butt" stroke-linejoin="miter">
</g>
	<g id="gnuplot_plot_1" ><title>pages+cached</title>
<g fill="none" color="black" stroke="currentColor" stroke-width="1.00" stroke-linecap="butt" stroke-linejoin="miter">
	<g transform="translate(279.8,485.9)" stroke="none" fill="black" font-family="Arial" font-size="12.00"  text-anchor="end">
		<text><tspan font-family="Arial" >pages+cached</tspan></text>
	</g>
</g>
<g fill="none" color="black" stroke="currentColor" stroke-width="1.00" stroke-linecap="butt" stroke-linejoin="miter">
	<path stroke='rgb(148,   0, 211)'  d='M288.1,482.0 L330.3,482.0 M62.2,437.8 L67.8,411.0 L73.4,394.5 L79.0,380.5 L84.5,376.9 L90.1,371.5
		L95.7,358.9 L101.3,346.4 L106.9,343.3 L112.5,340.5 L118.0,338.0 L123.6,337.3 L129.2,335.4 L134.8,334.5
		L140.4,323.6 L146.0,301.5 L151.5,296.7 L157.1,296.1 L162.7,295.0 L168.3,294.9 L173.9,288.5 L179.5,288.1
		L185.0,286.9 L190.6,285.7 L196.2,271.9 L201.8,257.8 L207.4,254.4 L213.0,252.9 L218.5,248.2 L224.1,246.4
		L229.7,245.6 L235.3,245.3 L240.9,244.0 L246.5,242.6 L252.1,242.1 L257.6,241.5 L263.2,238.0 L268.8,235.6
		L274.4,231.8 L280.0,231.3 L285.6,230.6 L291.1,230.6 L296.7,228.4 L302.3,226.2 L307.9,221.3 L313.5,219.2
		L319.1,214.0 L324.6,209.0 L330.2,205.7 L335.8,205.4 L341.4,201.1 L347.0,201.0 L352.6,195.3 L358.1,194.7
		L363.7,192.6 L369.3,188.1 L374.9,188.0 L380.5,186.9 L386.1,184.0 L391.6,180.7 L397.2,178.0 L402.8,175.6
		L408.4,170.1 L414.0,168.6 L419.6,167.9 L425.1,167.9 L430.7,167.8 L436.3,167.8 L441.9,162.8 L447.5,161.9
		L453.1,158.2 L458.7,157.7 L464.2,152.9 L469.8,144.9 L475.4,143.9 L481.0,141.6 L486.6,138.5 L492.2,136.5
		L497.7,135.7 L503.3,134.6 L508.9,133.4 L514.5,131.9 L520.1,131.8 L525.7,125.5 L531.2,123.8 L536.8,123.7
		L542.4,118.0 L548.0,117.2 L553.6,115.8 L559.2,115.3 L564.7,102.9 L570.3,99.9 L575.9,99.7 L581.5,99.3
		L587.1,95.8 L592.7,95.8 L598.2,93.6 L603.8,90.1 L609.4,88.4 L615.0,26.3  '/></g>
	</g>
	<g id="gnuplot_plot_2" ><title>pages+cached+nointeractive</title>
<g fill="none" color="black" stroke="currentColor" stroke-width="1.00" stroke-linecap="butt" stroke-linejoin="miter">
	<g transform="translate(554.4,485.9)" stroke="none" fill="black" font-family="Arial" font-size="12.00"  text-anchor="end">
		<text><tspan font-family="Arial" >pages+cached+nointeractive</tspan></text>
	</g>
</g>
<g fill="none" color="black" stroke="currentColor" stroke-width="1.00" stroke-linecap="butt" stroke-linejoin="miter">
	<path stroke='rgb(  0, 158, 115)'  d='M562.7,482.0 L604.9,482.0 M62.2,397.0 L67.8,367.7 L73.4,364.4 L79.0,363.5 L84.5,341.1 L90.1,334.6
		L95.7,324.7 L101.3,324.3 L106.9,321.7 L112.5,290.5 L118.0,290.1 L123.6,287.9 L129.2,286.1 L134.8,284.2
		L140.4,282.4 L146.0,278.8 L151.5,278.3 L157.1,276.7 L162.7,274.5 L168.3,269.2 L173.9,265.8 L179.5,256.7
		L185.0,256.5 L190.6,246.1 L196.2,245.8 L201.8,243.2 L207.4,243.0 L213.0,242.6 L218.5,240.8 L224.1,239.8
		L229.7,239.0 L235.3,236.5 L240.9,236.1 L246.5,234.1 L252.1,232.8 L257.6,232.8 L263.2,230.9 L268.8,230.1
		L274.4,228.1 L280.0,226.9 L285.6,224.6 L291.1,219.1 L296.7,218.8 L302.3,218.5 L307.9,217.2 L313.5,216.9
		L319.1,216.7 L324.6,213.0 L330.2,211.7 L335.8,210.1 L341.4,206.9 L347.0,204.9 L352.6,203.0 L358.1,202.3
		L363.7,200.1 L369.3,195.9 L374.9,195.0 L380.5,190.8 L386.1,188.9 L391.6,188.1 L397.2,185.0 L402.8,184.7
		L408.4,184.2 L414.0,177.3 L419.6,170.2 L425.1,168.5 L430.7,163.0 L436.3,155.7 L441.9,138.3 L447.5,137.6
		L453.1,137.3 L458.7,137.1 L464.2,136.4 L469.8,135.5 L475.4,135.0 L481.0,134.2 L486.6,133.8 L492.2,133.5
		L497.7,132.3 L503.3,132.0 L508.9,130.2 L514.5,130.0 L520.1,127.3 L525.7,126.2 L531.2,124.5 L536.8,122.1
		L542.4,121.8 L548.0,120.4 L553.6,120.4 L559.2,119.6 L564.7,119.2 L570.3,118.1 L575.9,115.3 L581.5,113.2
		L587.1,106.2 L592.7,94.6 L598.2,92.7 L603.8,92.4 L609.4,85.3 L615.0,81.7  '/></g>
	</g>
<g fill="none" color="#FFFFFF" stroke="rgb(  0, 158, 115)" stroke-width="2.00" stroke-linecap="butt" stroke-linejoin="miter">
</g>
<g fill="none" color="black" stroke="currentColor" stroke-width="2.00" stroke-linecap="butt" stroke-linejoin="miter">
</g>
<g fill="none" color="black" stroke="black" stroke-width="1.00" stroke-linecap="butt" stroke-linejoin="miter">
</g>
<g fill="none" color="black" stroke="currentColor" stroke-width="1.00" stroke-linecap="butt" stroke-linejoin="miter">
	<path stroke='black'  d='M62.2,18.1 L62.2,446.0 L615.0,446.0 L615.0,18.1 L62.2,18.1 Z  '/></g>
<g fill="none" color="black" stroke="currentColor" stroke-width="1.00" stroke-linecap="butt" stroke-linejoin="miter">
</g>
</g>
</svg>
